dist/img/online.svg

<svg width="50" height="50" viewBox="0 0 50 50" fill="none" xmlns="http://www.w3.org/2000/svg">
<path d="M14 5C11.0898 5 8.60938 7.07031 8.15625 9.875C8.14453 9.94141 8.10156 9.99609 8.09375 10.0625H8.125C8.08984 10.2148 8.05078 10.3555 8.03125 10.5C7.72656 10.7109 7.43359 10.9375 7.1875 11.1875C6.01172 12.375 5.51562 13.8672 5.15625 15.0938C5.15234 15.1016 5.16016 15.1172 5.15625 15.125C3.85938 19.1133 1.53516 28.5547 1 30.7188C0.375 32.0234 0 33.4609 0 35C0 40.5117 4.48828 45 10 45C15.3867 45 19.7695 40.7148 19.9688 35.375C21.1016 36.2109 22.7422 37 25 37C27.2578 37 28.8984 36.2109 30.0312 35.375C30.2305 40.7148 34.6133 45 40 45C45.5117 45 50 40.5117 50 35C50 33.8711 49.8164 32.793 49.4688 31.7812C49.3047 31.125 46.3516 19.3906 45.0625 15.125V15.0938C44.6562 13.875 44.1172 12.3828 42.9375 11.1875C42.6445 10.8906 42.3125 10.6172 41.9375 10.375C41.918 10.2695 41.9023 10.1719 41.875 10.0625H41.9062C41.8984 9.99609 41.8555 9.94141 41.8438 9.875C41.3906 7.07031 38.9102 5 36 5C32.6758 5 30 7.67578 30 11C30 11.7344 30.1211 12.4453 30.3438 13.0938C29.8789 13.6328 29.4883 14.1211 29.2188 14.375C29.1055 14.4805 29.0977 14.4766 29.0625 14.5C27.9258 13.6641 26.5547 13.0938 25.0938 13.0938C23.6367 13.0938 22.2031 13.6172 21.0938 14.5C21.0547 14.4766 21.0508 14.4805 20.9375 14.375C20.6445 14.1016 20.2031 13.5664 19.6875 12.9688C19.8867 12.3516 20 11.6914 20 11C20 7.67578 17.3242 5 14 5ZM14 7C16.2773 7 18 8.72266 18 11C18 11.0859 17.9727 11.1641 17.9688 11.25C16.6992 10.1602 15.0664 9.1875 12.9062 9.1875C11.9375 9.1875 11.0703 9.28125 10.3125 9.46875C10.8633 8.01562 12.293 7 14 7ZM36 7C37.6914 7 39.0938 8.00391 39.6562 9.4375C38.957 9.27734 38.1875 9.1875 37.3125 9.1875C35.0703 9.1875 33.3359 10.2305 32.0312 11.375C32.0195 11.2461 32 11.125 32 11C32 8.72266 33.7227 7 36 7ZM12.9062 11.1875C14.9023 11.1875 16.2812 12.2617 17.4375 13.4688C17.4492 13.9727 17.8398 14.3906 18.3438 14.4375C18.7695 14.9336 19.1758 15.4219 19.5938 15.8125C19.8789 16.0781 20.168 16.332 20.625 16.4688C21.082 16.6055 21.7305 16.5039 22.125 16.1875L22.1562 16.1562C22.8242 15.5625 24.0508 15.0938 25.0938 15.0938C26.1367 15.0938 27.2344 15.5234 28.0625 16.1875V16.1562H28.0938C28.4805 16.4727 29.1172 16.6055 29.5625 16.4688C30.0195 16.3281 30.2812 16.0781 30.5625 15.8125C30.9844 15.4141 31.4023 14.9141 31.8438 14.4062C32.1914 14.3008 32.457 14.0117 32.5312 13.6562C33.7383 12.3711 35.207 11.1875 37.3125 11.1875C38.6289 11.1875 39.5664 11.3867 40.2812 11.7188C40.4023 11.8398 40.5547 11.9258 40.7188 11.9688C40.75 11.9805 40.7812 11.9922 40.8125 12C41.082 12.1758 41.3242 12.3828 41.5312 12.5938C42.3203 13.3945 42.7656 14.5156 43.1562 15.6875C43.1602 15.6953 43.1523 15.7109 43.1562 15.7188C43.9258 18.2695 45.207 23.1172 46.25 27.1875C44.5352 25.8086 42.3633 25 40 25C35.4688 25 31.6289 28.043 30.4062 32.1875C30.332 32.25 30.2695 32.3242 30.2188 32.4062C30.2188 32.4062 28.9297 35 25 35C21.0703 35 19.7812 32.4062 19.7812 32.4062C19.7305 32.3125 19.668 32.2305 19.5938 32.1562C18.3633 28.0273 14.5234 25 10 25C7.73438 25 5.64844 25.7578 3.96875 27.0312C5.00391 22.9688 6.25781 18.1953 7.0625 15.7188V15.6875C7.40234 14.5234 7.80469 13.3945 8.59375 12.5938C9.38281 11.793 10.5938 11.1875 12.9062 11.1875ZM25 25C22.8008 25 21 26.8008 21 29C21 31.1992 22.8008 33 25 33C27.1992 33 29 31.1992 29 29C29 26.8008 27.1992 25 25 25ZM10 27C14.4297 27 18 30.5703 18 35C18 39.4297 14.4297 43 10 43C5.57031 43 2 39.4297 2 35C2 34.3984 2.0625 33.8125 2.1875 33.25C2.38672 33.0977 2.51953 32.875 2.5625 32.625C2.5625 32.625 2.82422 31.5469 2.875 31.3438C4.19922 28.7617 6.89062 27 10 27ZM25 27C26.1172 27 27 27.8828 27 29C27 30.1172 26.1172 31 25 31C23.8828 31 23 30.1172 23 29C23 27.8828 23.8828 27 25 27ZM40 27C43.4844 27 46.4297 29.2148 47.5312 32.3125C47.5352 32.3281 47.625 32.6562 47.625 32.6562C47.6523 32.7578 47.6953 32.8516 47.75 32.9375C47.9258 33.5938 48 34.2852 48 35C48 39.4297 44.4297 43 40 43C35.5703 43 32 39.4297 32 35C32 30.5703 35.5703 27 40 27ZM4.90625 33.9688C4.86328 33.9766 4.82031 33.9883 4.78125 34C4.31641 34.1055 3.98828 34.5234 4 35C4 38.3242 6.67578 41 10 41C10.3594 41.0039 10.6953 40.8164 10.8789 40.5039C11.0586 40.1914 11.0586 39.8086 10.8789 39.4961C10.6953 39.1836 10.3594 38.9961 10 39C7.72266 39 6 37.2773 6 35C6.01172 34.7109 5.89453 34.4336 5.6875 34.2383C5.47656 34.0391 5.19141 33.9414 4.90625 33.9688ZM35.9062 33.9688C35.8633 33.9766 35.8203 33.9883 35.7812 34C35.3164 34.1055 34.9883 34.5234 35 35C35 38.3242 37.6758 41 41 41C41.3594 41.0039 41.6953 40.8164 41.8789 40.5039C42.0586 40.1914 42.0586 39.8086 41.8789 39.4961C41.6953 39.1836 41.3594 38.9961 41 39C38.7227 39 37 37.2773 37 35C37.0117 34.7109 36.8945 34.4336 36.6875 34.2383C36.4766 34.0391 36.1914 33.9414 35.9062 33.9688Z" fill="#216E7A"/>
<circle opacity="0.8" cx="10" cy="35" r="8" fill="#216E7A"/>
<circle opacity="0.8" cx="40" cy="35" r="8" fill="#216E7A"/>
<path d="M5.98193 34.8108C5.87743 34.2685 5.35309 33.9136 4.81078 34.0181C4.26847 34.1226 3.91356 34.6469 4.01807 35.1892L5.98193 34.8108ZM9.88118 40.9929C10.4295 41.0585 10.9273 40.6672 10.9929 40.1188C11.0585 39.5705 10.6672 39.0727 10.1188 39.0071L9.88118 40.9929ZM4.01807 35.1892C4.36003 36.9638 4.83706 38.3689 5.81432 39.358C6.81125 40.3671 8.1706 40.7882 9.88118 40.9929L10.1188 39.0071C8.56225 38.8208 7.75608 38.4777 7.23704 37.9524C6.69833 37.4071 6.30894 36.5077 5.98193 34.8108L4.01807 35.1892Z" fill="white"/>
<path d="M35.9819 34.8108C35.8774 34.2685 35.3531 33.9136 34.8108 34.0181C34.2685 34.1226 33.9136 34.6469 34.0181 35.1892L35.9819 34.8108ZM39.8812 40.9929C40.4295 41.0585 40.9273 40.6672 40.9929 40.1188C41.0585 39.5705 40.6672 39.0727 40.1188 39.0071L39.8812 40.9929ZM34.0181 35.1892C34.36 36.9638 34.8371 38.3689 35.8143 39.358C36.8113 40.3671 38.1706 40.7882 39.8812 40.9929L40.1188 39.0071C38.5622 38.8208 37.7561 38.4777 37.237 37.9524C36.6983 37.4071 36.3089 36.5077 35.9819 34.8108L34.0181 35.1892Z" fill="white"/>
</svg>

<svg width="50" height="50" fill="none" xmlns="http://www.w3.org/2000/svg"><path d="M14 5c-2.91 0-5.39 2.07-5.844 4.875-.011.066-.054.121-.062.188h.031c-.035.152-.074.292-.094.437-.304.21-.597.438-.844.688-1.175 1.187-1.671 2.68-2.03 3.906-.005.008.003.023 0 .031C3.858 19.113 1.534 28.555 1 30.719.375 32.023 0 33.46 0 35c0 5.512 4.488 10 10 10 5.387 0 9.77-4.285 9.969-9.625C21.102 36.211 22.742 37 25 37c2.258 0 3.898-.79 5.031-1.625C30.231 40.715 34.613 45 40 45c5.512 0 10-4.488 10-10a9.865 9.865 0 00-.531-3.219c-.164-.656-3.117-12.39-4.407-16.656v-.031c-.406-1.219-.945-2.711-2.124-3.906a5.893 5.893 0 00-1-.813c-.02-.105-.036-.203-.063-.313h.031c-.008-.066-.05-.12-.062-.187C41.39 7.07 38.91 5 36 5c-3.324 0-6 2.676-6 6 0 .734.121 1.445.344 2.094-.465.539-.856 1.027-1.125 1.281-.114.105-.121.102-.157.125-1.136-.836-2.507-1.406-3.968-1.406-1.457 0-2.89.523-4 1.406-.04-.023-.043-.02-.157-.125-.293-.273-.734-.809-1.25-1.406.2-.617.313-1.278.313-1.969 0-3.324-2.676-6-6-6zm0 2c2.277 0 4 1.723 4 4 0 .086-.027.164-.031.25-1.27-1.09-2.903-2.063-5.063-2.063-.969 0-1.836.094-2.594.282C10.864 8.016 12.293 7 14 7zm22 0c1.691 0 3.094 1.004 3.656 2.438-.699-.16-1.468-.25-2.343-.25-2.243 0-3.977 1.042-5.282 2.187-.011-.129-.031-.25-.031-.375 0-2.277 1.723-4 4-4zm-23.094 4.188c1.996 0 3.375 1.074 4.531 2.28a1 1 0 00.907.97c.425.496.832.984 1.25 1.374.285.266.574.52 1.031.657.457.136 1.105.035 1.5-.282l.031-.03c.668-.595 1.895-1.063 2.938-1.063 1.043 0 2.14.43 2.968 1.094v-.032h.032c.386.317 1.023.45 1.468.313.457-.14.72-.39 1-.657.422-.398.84-.898 1.282-1.406a1 1 0 00.687-.75c1.207-1.285 2.676-2.469 4.782-2.469 1.316 0 2.253.2 2.968.532a.967.967 0 00.438.25c.031.011.062.023.093.031.27.176.512.383.72.594.788.8 1.234 1.922 1.624 3.094.004.007-.004.023 0 .03.77 2.552 2.051 7.4 3.094 11.47A9.924 9.924 0 0040 25c-4.531 0-8.371 3.043-9.594 7.188a.911.911 0 00-.187.218S28.929 35 25 35c-3.93 0-5.219-2.594-5.219-2.594a1.075 1.075 0 00-.187-.25C18.364 28.027 14.524 25 10 25a9.945 9.945 0 00-6.031 2.031c1.035-4.062 2.289-8.836 3.094-11.312v-.031c.34-1.165.742-2.293 1.53-3.094.79-.801 2-1.406 4.313-1.406zM25 25c-2.2 0-4 1.8-4 4s1.8 4 4 4 4-1.8 4-4-1.8-4-4-4zm-15 2c4.43 0 8 3.57 8 8s-3.57 8-8 8-8-3.57-8-8c0-.602.063-1.188.188-1.75a.996.996 0 00.374-.625s.262-1.078.313-1.281A7.992 7.992 0 0110 27zm15 0c1.117 0 2 .883 2 2s-.883 2-2 2-2-.883-2-2 .883-2 2-2zm15 0a7.982 7.982 0 017.531 5.313l.094.343c.027.102.07.196.125.282.176.656.25 1.347.25 2.062 0 4.43-3.57 8-8 8s-8-3.57-8-8 3.57-8 8-8zM4.906 33.969a1.17 1.17 0 00-.125.031A1.002 1.002 0 004 35c0 3.324 2.676 6 6 6 .36.004.695-.184.879-.496a1.01 1.01 0 000-1.008c-.184-.312-.52-.5-.879-.496-2.277 0-4-1.723-4-4a1 1 0 00-1.094-1.031zm31 0c-.043.008-.086.02-.125.031A1.002 1.002 0 0035 35c0 3.324 2.676 6 6 6 .36.004.695-.184.879-.496a1.01 1.01 0 000-1.008c-.184-.312-.52-.5-.879-.496-2.277 0-4-1.723-4-4a1 1 0 00-1.094-1.031z" fill="#216E7A"/><circle opacity=".8" cx="10" cy="35" r="8" fill="#216E7A"/><circle opacity=".8" cx="40" cy="35" r="8" fill="#216E7A"/><path d="M5.982 34.81a1 1 0 00-1.964.38l1.964-.38zm3.9 6.183a1 1 0 00.237-1.986l-.238 1.986zm-5.864-5.804c.342 1.775.82 3.18 1.796 4.169.997 1.01 2.357 1.43 4.067 1.635l.238-1.986c-1.557-.186-2.363-.53-2.882-1.055-.539-.545-.928-1.444-1.255-3.141l-1.964.378zm31.964-.379a1 1 0 10-1.964.38l1.964-.38zm3.9 6.183a1 1 0 00.237-1.986l-.238 1.986zm-5.864-5.804c.342 1.775.82 3.18 1.796 4.169.997 1.01 2.357 1.43 4.067 1.635l.238-1.986c-1.557-.186-2.363-.53-2.882-1.055-.539-.545-.928-1.444-1.255-3.141l-1.964.378z" fill="#fff"/></svg>
